proprietary/assets/icons/water/kraan-met-druppel-water.svg

<svg height="64" viewBox="0 0 64 64" width="64" xmlns="http://www.w3.org/2000/svg"><path d="m0 0h64v64h-64z" fill="none"/><path d="m19.991 38.8598c-.2727-.7537-.6197-.8598-.9864-.8598-.3665 0-.7178.1061-.9907.8598-2.275 6.2855-6.8523 9.1402-7.8069 13.9094-1.0005 4.9987 3.8284 9.2308 8.7976 9.2308 4.9695 0 9.8068-4.2347 8.7935-9.2308-.9597-4.7307-5.532-7.6239-7.8071-13.9094zm-1.6346 19.5271c-1.6819 0-3.4456-.8251-4.4927-2.1035-.7061-.861-.9688-1.7717-.7817-2.7055.3372-1.6862 1.5239-3.292 3.0264-5.3246.7024-.9507 1.4763-1.9988 2.2427-3.1757.0254.0389.0503.0719.0754.1105-.968 3.4059-2.0251 6.4014-2.0251 8.5406 0 1.9584 1.3806 4.0527 2.3987 4.6317-.1482.0122-.2964.0265-.4437.0265z"/><path d="m50.7382 17-1.3705 6.7752c-.1028.3204-.3109.2736-.3677.2524v-7.0276c0-2.7844-3.0916-3.8737-6-3.9886v-4.7614l6.0107.5009c1.6092.134 2.9893-1.1358 2.9893-2.7505v-.0008c0-1.6147-1.3801-2.8846-2.9893-2.7505l-6.2791.5233c-.4696-1.0432-1.5133-1.7724-2.7316-1.7724s-2.262.7292-2.7317 1.7723l-6.2791-.5233c-1.6091-.134-2.9892 1.1358-2.9892 2.7506v.0009c0 1.6147 1.3801 2.8845 2.9893 2.7504l6.0107-.5009v4.7614c-2.9084.1149-6 1.2042-6 3.9886v1h-4c-6.1685 0-12 5.8315-12 12v5h8v-5c0-1.7568 2.2432-4 4-4h4s.5 6 9 6c6.3019 0 8.2029-3.2943 8.7664-5h8.2336v-10z"/></svg>

<?xml version="1.0" encoding="utf-8"?>
<!-- Generator: Adobe Illustrator 17.1.0, SVG Export Plug-In . SVG Version: 6.00 Build 0)  -->
<svg version="1.2" baseProfile="tiny" xmlns="http://www.w3.org/2000/svg" xmlns:xlink="http://www.w3.org/1999/xlink" x="0px"
	 y="0px" width="64px" height="64px" viewBox="0 0 64 64" xml:space="preserve">
<g id="_x36_4px_Boxes">
	<rect fill="none" width="64" height="64"/>
</g>
<g id="Production">
	<g>
		<path d="M19.991,38.8598C19.7183,38.1061,19.3713,38,19.0046,38c-0.3665,0-0.7178,0.1061-0.9907,0.8598
			C15.7389,45.1453,11.1616,48,10.207,52.7692C9.2065,57.7679,14.0354,62,19.0046,62c4.9695,0,9.8068-4.2347,8.7935-9.2308
			C26.8384,48.0385,22.2661,45.1453,19.991,38.8598z M18.3564,58.3869c-1.6819,0-3.4456-0.8251-4.4927-2.1035
			c-0.7061-0.861-0.9688-1.7717-0.7817-2.7055c0.3372-1.6862,1.5239-3.292,3.0264-5.3246c0.7024-0.9507,1.4763-1.9988,2.2427-3.1757
			c0.0254,0.0389,0.0503,0.0719,0.0754,0.1105c-0.968,3.4059-2.0251,6.4014-2.0251,8.5406c0,1.9584,1.3806,4.0527,2.3987,4.6317
			C18.6519,58.3726,18.5037,58.3869,18.3564,58.3869z"/>
		<path d="M50.7382,17l-1.3705,6.7752c-0.1028,0.3204-0.3109,0.2736-0.3677,0.2524V17c0-2.7844-3.0916-3.8737-6-3.9886V8.25
			l6.0107,0.5009C50.6199,8.8849,52,7.6151,52,6.0004V5.9996c0-1.6147-1.3801-2.8846-2.9893-2.7505l-6.2791,0.5233
			C42.262,2.7292,41.2183,2,40,2s-2.262,0.7292-2.7317,1.7723l-6.2791-0.5233C29.3801,3.115,28,4.3848,28,5.9996v0.0009
			c0,1.6147,1.3801,2.8845,2.9893,2.7504L37,8.25v4.7614c-2.9084,0.1149-6,1.2042-6,3.9886v1h-4c-6.1685,0-12,5.8315-12,12v5h8v-5
			c0-1.7568,2.2432-4,4-4h4c0,0,0.5,6,9,6c6.3019,0,8.2029-3.2943,8.7664-5H57V17H50.7382z"/>
	</g>
</g>
</svg>
